X:5401
T:R\'il an Spiddal
O:england
C:Charlie Lennon
R:reel
M:C|
K:D
AF~F2 dFAF|ABdf eB~B2|AF~F2 dFAF|E2CD EFGB|
AF~F2 dFAF|ABdf eB~B2|~g3e fga2|ABde fdd2:|
|:fa~a2 bfaf|dfaf geeg|f2df aba2|ABde fd~d2|
fa~a2 bfaf|dfaf geef|gfgb af~f2|efaf edd2:|


